X: 11025
T: DOUG MacPHEE'S WALTZ
C: Bob McQuillen 17 Oct 94
B: Bob's Note Book 11 #25
R: waltz
Z: 2020 John Chambers <jc:trillian.mit.edu>
M: 3/4
L: 1/8
K: D
A3 G \
| "D"F2 A2 d2 | "G"B4   de | "D"f2 d2 A2 | "G"G4   AG | "D"F2 A2 d2 |  "G"B3  A G2 | "A7"A6- | A4 AG |
| "D"F2 A2 d2 | "G"B3 c de | "D"f2 a2 f2 | "G"g3 a g2 | "D"f2 d3  B | "A7"A2 d2 c2 |  "D"d6- | d2 :|
|: d3 e \
| "D"f2 d2 f2 |  "A"e3  c A2 | "Bm"d2 B2 d2 | "F#m"c3  A F2 | "G"G3 A B2 | "Bm"A2 F2 A2 | "Em"B2 c2 d2 | "A7"e2 d2 c2 |
| "G"B6       | "A7"c2 d2 e2 | "Bm"f2 e2 d2 |   "G"B2 G2 B2 | "D"A6      | "A7"e4    d2 |  "D"d6-      | d2 :|
%%begintext align
%% Marianne Jewell,
%% wonderful Cape Breton-style fiddler, invited me up
%% to Mabou for a visit, and one of the many nice
%% things we did was go to see Doug MacPhee and his
%% mother. What a breat evening of music we all had -
%% it was such fun. Thanks so much, dear friends.
%%endtext
